img/experience/VISA.svg

<svg height="519" viewBox="0 0 1599 519" width="1599" xmlns="http://www.w3.org/2000/svg"><path d="m1041.9.8c72.68 0 124.22 22.23 124.22 22.23l-22.92 105.93s-47.37-23.98-105.43-23.98c-51.45 0-76.26 22.63-76.26 43.28 0 58.12 180.63 66.47 180.63 198.18 0 110.54-97.64 172.25-221.72 172.25-83.72 0-146.78-27.85-146.78-27.85l23.42-109.68s54.74 32.98 127.98 32.98c51.6 0 81.82-23.6 81.82-49.97 0-62.61-179.88-71.22-179.88-195.86 0-108.68 101.42-167.51 214.92-167.51zm-1038.35 7.99h216.66c31.29 0 56.85 18.88 61.9 51.97l55.02 289.11 134.85-341.08h135.9l-209.85 501.66h-136.22l-101.62-391.73c-9.32-36.14-13.27-47.78-68.64-67.77-43-17.43-90.75-26.17-90.75-26.17zm658.98 0h129.23l-106.24 501.66h-129.6zm722.82 0h109.23l104.62 501.66h-119.92l-15.99-75.95h-165.57l-26.29 75.95h-135.91l189.87-455.69c12.15-29.23 28.71-45.97 59.96-45.97zm17.67 135.54-67.64 188.24h107.93z" fill="#1434cb" fill-rule="evenodd"/></svg>

<svg version="1.2" baseProfile="tiny-ps" xmlns="http://www.w3.org/2000/svg" viewBox="0 0 1599 519" width="1599" height="519">
	<title>Visa_2021-svg</title>
	<style>
		tspan { white-space:pre }
		.shp0 { fill: #1434cb } 
	</style>
	<path id="path3789" fill-rule="evenodd" class="shp0" d="M1041.9 0.8C1114.58 0.8 1166.12 23.03 1166.12 23.03L1143.2 128.96C1143.2 128.96 1095.83 104.98 1037.77 104.98C986.32 104.98 961.51 127.61 961.51 148.26C961.51 206.38 1142.14 214.73 1142.14 346.44C1142.14 456.98 1044.5 518.69 920.42 518.69C836.7 518.69 773.64 490.84 773.64 490.84L797.06 381.16C797.06 381.16 851.8 414.14 925.04 414.14C976.64 414.14 1006.86 390.54 1006.86 364.17C1006.86 301.56 826.98 292.95 826.98 168.31C826.98 59.63 928.4 0.8 1041.9 0.8ZM3.55 8.79L220.21 8.79C251.5 8.79 277.06 27.67 282.11 60.76L337.13 349.87L471.98 8.79L607.88 8.79L398.03 510.45L261.81 510.45L160.19 118.72C150.87 82.58 146.92 70.94 91.55 50.95C48.55 33.52 0.8 24.78 0.8 24.78L3.55 8.79ZM662.53 8.79L791.76 8.79L685.52 510.45L555.92 510.45L662.53 8.79ZM1385.35 8.79L1494.58 8.79L1599.2 510.45L1479.28 510.45L1463.29 434.5L1297.72 434.5L1271.43 510.45L1135.52 510.45L1325.39 54.76C1337.54 25.53 1354.1 8.79 1385.35 8.79ZM1403.02 144.33L1335.38 332.57L1443.31 332.57L1403.02 144.33Z" />
</svg>
